X:1
T:Anniversary Song of Praise
T:Anniversary Song of Praise
T:John Robson Sweney
T:Mrs. A. M. Chance, 1881
T:Public Domain Courtesy of the Cyber Hymnal™
C:John Robson Sweney
Z:Public Domain
Z:Courtesy of the Cyber Hymnal™
%%score ( 1 2 ) ( 3 4 )
L:1/8
Q:1/4=100
M:4/4
K:C
V:1 treble 
V:2 treble 
V:3 bass 
V:4 bass 
V:1
 [CE]2 [B,F]2 [CG]3 [Ec] | (cB) (AB) [Ec]2 [EG]2 | [DF]2 [CE]2 [B,D]3 [CE] | %3
w: 1.~God has blessed us|with- * out * mea- sure,|Crowned our years with|
w: 2.~And our school to-|day * re- * joic- es,|While we praise with|
w: 3.~Thanks to God, our|heav- * enly * Fa- ther,|Who has blessed and|
 ([DF][FA]) ([EG][DF]) [DF]2 [CE]2 | [EG]2 [Ec]2 [Ge]3 [Ge] | [^Ge]2 [Bd]2 ([Ac]2 [FA]2) | %6
w: rich- * est * trea- sure,|Joined our hearts in|love to Him, *|
w: hap- * py * voic- es,|On this an- ni-|ver- sary day, *|
w: kept * us * ev- er,|With u- nit- ed|heart and tongue, *|
 [EG]2 [Ec]2 [Dc][DB][FA][FB] | [Ec]6 z2 ||"^Refrain" [EG]4 ([Ec] G/G/ GG) | [Fd]4 ([Ec] G/G/ GG) | %10
w: That we all might praise His|name.|||
w: We would bring our grate- ful|lay.|Praise Him, * * * *|praise Him, * * * *|
w: May His praise by us be|sung.|||
 [Ge]2 [Gc]2 [FA]2 [Fc]2 | [EG]6 z2 | G4 [Gf] z3 | [Ge]4 [Ec] z3 | [FA]2 [Fd]2 ([Ec][DB]) (AB) | %15
w: |||||
w: Praise His ho- ly|name;|Praise Him,|praise Him,|Praise His ho- * ly *|
w: |||||
 [Ec]6 z2 |] %16
w: |
w: name.|
w: |
V:2
 x8 | D2 F2 x4 | x8 | x8 | x8 | x8 | x8 | x8 || x8 | x8 | x8 | x8 | G4 x4 | x8 | x6 F2 | x8 |] %16
V:3
 [C,G,]2 [D,G,]2 [E,G,]3 [C,G,] | G,2 [G,,G,]2 [C,G,]2 [C,C]2 | [G,B,]2 G,2 G,3 [G,,G,] | %3
 [G,,G,]2 [G,,G,]2 [C,G,]2 [C,G,]2 | [C,C]2 [C,G,]2 [C,C]3 [C,C] | [E,B,]2 [E,^G,]2 (A,2 C2) | %6
 [G,C]2 G,2 [G,,G,][G,,G,][G,,G,][G,,G,] | [C,G,]6 z2 || [C,C]4 [C,G,] z3 | [G,B,]4 [C,C] z3 | %10
 [C,C]2 [E,C]2 [F,C]2 [A,C]2 | C6 x2 | [G,B,]4 ([B,D]DB,G,) | C4 [C,G,] x3 | %14
 [F,C]2 [F,A,]2 G,2 [G,,G,]2 | [C,G,]6 z2 |] %16
V:4
 x8 | G,2 x6 | x2 G,2 G,3 x | x8 | x8 | x4 F,4 | x2 G,2 x4 | x8 || x8 | x8 | x8 | (C6 (3G,E,C,) | %12
 x8 | C4 (C,D,E,) x | x4 G,2 x2 | x8 |] %16

